Numix/16/status/indicator-keyboard-Mr.svg

<?xml version="1.0" encoding="UTF-8" standalone="no"?>
<svg
   xmlns:dc="http://purl.org/dc/elements/1.1/"
   xmlns:cc="http://creativecommons.org/ns#"
   xmlns:rdf="http://www.w3.org/1999/02/22-rdf-syntax-ns#"
   xmlns:svg="http://www.w3.org/2000/svg"
   xmlns="http://www.w3.org/2000/svg"
   xmlns:sodipodi="http://sodipodi.sourceforge.net/DTD/sodipodi-0.dtd"
   xmlns:inkscape="http://www.inkscape.org/namespaces/inkscape"
   viewBox="0 0 16 16"
   id="svg2"
   version="1.1"
   inkscape:version="0.91 r13725"
   sodipodi:docname="indicator-keyboard-Mr.svg">
  <metadata
     id="metadata13">
    <rdf:RDF>
      <cc:Work
         rdf:about="">
        <dc:format>image/svg+xml</dc:format>
        <dc:type
           rdf:resource="http://purl.org/dc/dcmitype/StillImage" />
      </cc:Work>
    </rdf:RDF>
  </metadata>
  <defs
     id="defs11" />
  <sodipodi:namedview
     pagecolor="#ffffff"
     bordercolor="#666666"
     borderopacity="1"
     objecttolerance="10"
     gridtolerance="10"
     guidetolerance="10"
     inkscape:pageopacity="0"
     inkscape:pageshadow="2"
     inkscape:window-width="640"
     inkscape:window-height="480"
     id="namedview9"
     showgrid="false"
     inkscape:zoom="14.75"
     inkscape:cx="8"
     inkscape:cy="8"
     inkscape:window-x="65"
     inkscape:window-y="24"
     inkscape:window-maximized="0"
     inkscape:current-layer="svg2" />
  <path
     style="fill:#ececec;fill-opacity:1"
     d="M 1.5996094 0 C 0.71320937 2.9605947e-16 0 0.71320937 0 1.5996094 L 0 14.400391 C 2.9605947e-16 15.286791 0.71320937 16 1.5996094 16 L 14.400391 16 C 15.286791 16 16 15.286791 16 14.400391 L 16 1.5996094 C 16 0.71320937 15.286791 0 14.400391 0 L 1.5996094 0 z M 3.2460938 4.8808594 L 3.7871094 4.8808594 C 3.9671094 5.1808594 4.1592812 5.5297812 4.3632812 5.9257812 C 4.5672813 6.3157813 4.7687969 6.7243906 4.9667969 7.1503906 C 5.1707969 7.5703906 5.3647813 7.9863906 5.5507812 8.4003906 C 5.7427812 8.8083906 5.9106875 9.1778125 6.0546875 9.5078125 C 6.1986875 9.1778125 6.3647813 8.8083906 6.5507812 8.4003906 C 6.7427813 7.9863906 6.9367656 7.5703906 7.1347656 7.1503906 C 7.3387656 6.7243906 7.5420937 6.3157813 7.7460938 5.9257812 C 7.9500937 5.5297813 8.1422656 5.1808594 8.3222656 4.8808594 L 8.8359375 4.8808594 C 8.9379375 5.8288594 9.0218906 6.8233281 9.0878906 7.8613281 C 9.1598906 8.8993281 9.2233437 9.9851405 9.2773438 11.119141 L 8.65625 11.119141 C 8.62025 10.15314 8.5772969 9.2314687 8.5292969 8.3554688 C 8.4872969 7.4734687 8.4276094 6.6582031 8.3496094 5.9082031 C 8.3016094 5.9922031 8.227 6.1358437 8.125 6.3398438 C 8.023 6.5438437 7.9054375 6.7807813 7.7734375 7.0507812 C 7.6414375 7.3207812 7.503375 7.6118281 7.359375 7.9238281 C 7.215375 8.2298281 7.0755 8.5302188 6.9375 8.8242188 C 6.7995 9.1122187 6.6725937 9.379 6.5585938 9.625 C 6.4505937 9.871 6.3666406 10.06875 6.3066406 10.21875 L 5.7578125 10.21875 C 5.6978125 10.06875 5.6100937 9.871 5.4960938 9.625 C 5.3880938 9.379 5.2669062 9.1122187 5.1289062 8.8242188 C 4.9909063 8.5302188 4.8490781 8.2298281 4.7050781 7.9238281 C 4.5610781 7.6118281 4.4230156 7.3207813 4.2910156 7.0507812 C 4.1590156 6.7807812 4.0414531 6.5438438 3.9394531 6.3398438 C 3.8374531 6.1358437 3.7628438 5.9922031 3.7148438 5.9082031 C 3.6368437 6.6582031 3.5733906 7.4734687 3.5253906 8.3554688 C 3.4833906 9.2314687 3.4442031 10.15314 3.4082031 11.119141 L 2.8066406 11.119141 C 2.8606406 9.9851405 2.9203281 8.8993281 2.9863281 7.8613281 C 3.0583281 6.8233281 3.1440937 5.8288594 3.2460938 4.8808594 z M 12.294922 6.375 C 12.486922 6.375 12.665984 6.3899219 12.833984 6.4199219 C 13.007984 6.4499219 13.127359 6.4797656 13.193359 6.5097656 L 13.076172 7.0136719 C 13.028172 6.9896719 12.929297 6.9673594 12.779297 6.9433594 C 12.635297 6.9133594 12.443125 6.8984375 12.203125 6.8984375 C 11.951125 6.8984375 11.747797 6.9151719 11.591797 6.9511719 C 11.441797 6.9871719 11.342922 7.0170156 11.294922 7.0410156 L 11.294922 11.119141 L 10.710938 11.119141 L 10.710938 6.6816406 C 10.860937 6.6156406 11.068031 6.550375 11.332031 6.484375 C 11.596031 6.412375 11.916922 6.375 12.294922 6.375 z "
     id="path4" />
</svg>

<svg xmlns="http://www.w3.org/2000/svg" viewBox="0 0 16 16">
 <path d="m 1.6 0 c -0.886 0 -1.6 0.713 -1.6 1.6 l 0 12.801 c 0 0.886 0.713 1.6 1.6 1.6 l 12.801 0 c 0.886 0 1.6 -0.713 1.6 -1.6 l 0 -12.801 c 0 -0.886 -0.713 -1.6 -1.6 -1.6 l -12.801 0 z m 1.646 4.881 l 0.541 0 c 0.18 0.3 0.372 0.649 0.576 1.045 c 0.204 0.39 0.406 0.799 0.604 1.225 c 0.204 0.42 0.398 0.836 0.584 1.25 c 0.192 0.408 0.36 0.777 0.504 1.107 c 0.144 -0.33 0.31 -0.699 0.496 -1.107 c 0.192 -0.414 0.386 -0.83 0.584 -1.25 c 0.204 -0.426 0.407 -0.835 0.611 -1.225 c 0.204 -0.396 0.396 -0.745 0.576 -1.045 l 0.514 0 c 0.102 0.948 0.186 1.942 0.252 2.98 c 0.072 1.038 0.135 2.124 0.189 3.258 l -0.621 0 c -0.036 -0.966 -0.079 -1.888 -0.127 -2.764 c -0.042 -0.882 -0.102 -1.697 -0.18 -2.447 c -0.048 0.084 -0.123 0.228 -0.225 0.432 c -0.102 0.204 -0.22 0.441 -0.352 0.711 c -0.132 0.27 -0.27 0.561 -0.414 0.873 c -0.144 0.306 -0.284 0.606 -0.422 0.9 c -0.138 0.288 -0.265 0.555 -0.379 0.801 c -0.108 0.246 -0.192 0.444 -0.252 0.594 l -0.549 0 c -0.06 -0.15 -0.148 -0.348 -0.262 -0.594 c -0.108 -0.246 -0.229 -0.513 -0.367 -0.801 c -0.138 -0.294 -0.28 -0.594 -0.424 -0.9 c -0.144 -0.312 -0.282 -0.603 -0.414 -0.873 c -0.132 -0.27 -0.25 -0.507 -0.352 -0.711 c -0.102 -0.204 -0.177 -0.348 -0.225 -0.432 c -0.078 0.75 -0.141 1.565 -0.189 2.447 c -0.042 0.876 -0.081 1.798 -0.117 2.764 l -0.602 0 c 0.054 -1.134 0.114 -2.22 0.18 -3.258 c 0.072 -1.038 0.158 -2.032 0.26 -2.98 z m 9.05 1.494 c 0.192 0 0.371 0.015 0.539 0.045 c 0.174 0.03 0.293 0.06 0.359 0.09 l -0.117 0.504 c -0.048 -0.024 -0.147 -0.046 -0.297 -0.07 c -0.144 -0.03 -0.336 -0.045 -0.576 -0.045 c -0.252 0 -0.455 0.017 -0.611 0.053 c -0.15 0.036 -0.249 0.066 -0.297 0.09 l 0 4.078 l -0.584 0 l 0 -4.438 c 0.15 -0.066 0.357 -0.131 0.621 -0.197 c 0.264 -0.072 0.585 -0.109 0.963 -0.109 z" style="fill:#ececec;fill-opacity:1"/>
</svg>
